X:7754
T:Une autre fois (F. Paris)
O:england
M:2/4
L:1/16
K:C
ef|g3f fedc|a3g fedc|d2 de ~d2 cd|\
e3f edcB|A3B ~c2Bc|
d2de dced|1 c3d cdef:|2 c3d cBcd||\
c3d ~c2Bc|d3e dced|
c3d cBAG|c3d cBcd|c3d ~c2Bc|\
d3e dcfe|d3e deef||


